X:178
T: Waise und Stiefmutter
N: Q0116E
O: Osteuropa, UdSSR, Ukraine
R: Ballade, Waise, boese Stiefmutter, Klage am Grab, Geist
M: 6/8
L: 1/8
K: G
D | G2B,C2B, | A,3z2
D | F2ED2C | B,3z2
D | G2ABAG | E3z2
E | D2FA2B | G3z2

@@@ Tune index: 1471
